color/taas.svg

<!-- Generated by IcoMoon.io -->
<svg version="1.1" xmlns="http://www.w3.org/2000/svg" width="32" height="32" viewBox="0 0 32 32">
<title>taas</title>
<path fill="#002342" d="M32 16c0 8.837-7.163 16-16 16s-16-7.163-16-16c0-8.837 7.163-16 16-16s16 7.163 16 16z"></path>
<path fill="#fff" d="M4 13h1.298v1.221h-1.298v-1.221zM5.298 17.774h3.777v1.226h-5.075v-3.558h3.81v1.22h-2.511v1.112zM22.925 15.442h5.075v3.558h-3.81v-1.226h2.512v-1.111h-3.777v-1.221zM26.723 14.28h-3.8v-1.221h3.8v1.22zM10.312 15.442h5.075v2.384h-1.264v1.174h-3.811v-3.558zM14.089 17.774v-1.111h-2.479v1.11h2.48zM10.312 13h5.075v1.221h-5.075v-1.221zM16.646 15.442h5.075v2.384h-1.264v1.174h-3.81v-3.558zM20.418 17.774v-1.111h-2.48v1.11h2.48zM16.646 13h5.075v1.221h-5.075v-1.221z"></path>
</svg>

<svg xmlns="http://www.w3.org/2000/svg" width="32" height="32"><g fill="none"><circle cx="16" cy="16" r="16" fill="#002342"/><path fill="#FFF" d="M4 13h1.298v1.221H4V13zm1.298 4.774h3.777V19H4v-3.558h3.81v1.22H5.299v1.112zm17.627-2.332H28V19h-3.81v-1.226h2.512v-1.111h-3.777v-1.221zm3.798-1.162h-3.8v-1.221h3.8v1.22zm-16.411 1.162h5.075v2.384h-1.264V19h-3.811v-3.558zm3.777 2.332v-1.111H11.61v1.11h2.48zM10.312 13h5.075v1.221h-5.075V13zm6.334 2.442h5.075v2.384h-1.264V19h-3.81v-3.558zm3.772 2.332v-1.111h-2.48v1.11h2.48zM16.646 13h5.075v1.221h-5.075V13z"/></g></svg>
